svgs/sharp-solid/repeat-1.svg

<svg xmlns="http://www.w3.org/2000/svg" viewBox="0 0 512 512"><!--! Font Awesome Pro 6.6.0 by @fontawesome - https://fontawesome.com License - https://fontawesome.com/license (Commercial License) Copyright 2024 Fonticons, Inc. --><path d="M0 96L0 224l0 32 64 0 0-32 0-96 256 0 0 64 32 0 96-96L352 0 320 0l0 64L32 64 0 64 0 96zM512 416l0-128 0-32-64 0 0 32 0 96-256 0 0-64-32 0L64 416l96 96 32 0 0-64 288 0 32 0 0-32zM224 240l16 0 0 56 0 24 48 0 0-24 0-80 0-24-24 0-40 0-8 0 0 48 8 0z"/></svg>

<svg xmlns="http://www.w3.org/2000/svg" viewBox="0 0 512 512"><!--! Font Awesome Pro 6.4.0 by @fontawesome - https://fontawesome.com License - https://fontawesome.com/license (Commercial License) Copyright 2023 Fonticons, Inc. --><path d="M0 96V224v32H64V224 128H320v64h32l96-96L352 0H320V64H32 0V96zM512 416V288 256H448v32 96H192V320H160L64 416l96 96h32V448H480h32V416zM224 240h16v56 24h48V296 216 192H264 224h-8v48h8z"/></svg>
